images/6604818.svg

<?xml version="1.0" encoding="UTF-8"?>
<svg xmlns="http://www.w3.org/2000/svg" xmlns:xlink="http://www.w3.org/1999/xlink" width="300pt" height="300pt" viewBox="0 0 300 300" version="1.1">
<defs>
<g>
<symbol overflow="visible" id="glyph0-0">
<path style="stroke:none;" d="M 0.59375 2.125 L 0.59375 -8.46875 L 6.59375 -8.46875 L 6.59375 2.125 Z M 1.265625 1.453125 L 5.9375 1.453125 L 5.9375 -7.78125 L 1.265625 -7.78125 Z M 1.265625 1.453125 "/>
</symbol>
<symbol overflow="visible" id="glyph0-1">
<path style="stroke:none;" d="M 1.171875 -8.75 L 2.765625 -8.75 L 6.65625 -1.4375 L 6.65625 -8.75 L 7.796875 -8.75 L 7.796875 0 L 6.203125 0 L 2.328125 -7.3125 L 2.328125 0 L 1.171875 0 Z M 1.171875 -8.75 "/>
</symbol>
<symbol overflow="visible" id="glyph0-2">
<path style="stroke:none;" d="M 4.734375 -7.953125 C 3.867188 -7.953125 3.179688 -7.628906 2.671875 -6.984375 C 2.171875 -6.347656 1.921875 -5.472656 1.921875 -4.359375 C 1.921875 -3.265625 2.171875 -2.394531 2.671875 -1.75 C 3.179688 -1.113281 3.867188 -0.796875 4.734375 -0.796875 C 5.585938 -0.796875 6.265625 -1.113281 6.765625 -1.75 C 7.273438 -2.394531 7.53125 -3.265625 7.53125 -4.359375 C 7.53125 -5.472656 7.273438 -6.347656 6.765625 -6.984375 C 6.265625 -7.628906 5.585938 -7.953125 4.734375 -7.953125 Z M 4.734375 -8.90625 C 5.953125 -8.90625 6.925781 -8.492188 7.65625 -7.671875 C 8.394531 -6.847656 8.765625 -5.742188 8.765625 -4.359375 C 8.765625 -2.984375 8.394531 -1.882812 7.65625 -1.0625 C 6.925781 -0.238281 5.953125 0.171875 4.734375 0.171875 C 3.503906 0.171875 2.519531 -0.238281 1.78125 -1.0625 C 1.039062 -1.882812 0.671875 -2.984375 0.671875 -4.359375 C 0.671875 -5.742188 1.039062 -6.847656 1.78125 -7.671875 C 2.519531 -8.492188 3.503906 -8.90625 4.734375 -8.90625 Z M 4.734375 -8.90625 "/>
</symbol>
<symbol overflow="visible" id="glyph0-3">
<path style="stroke:none;" d="M 1.171875 -8.75 L 2.359375 -8.75 L 2.359375 -5.15625 L 6.65625 -5.15625 L 6.65625 -8.75 L 7.84375 -8.75 L 7.84375 0 L 6.65625 0 L 6.65625 -4.171875 L 2.359375 -4.171875 L 2.359375 0 L 1.171875 0 Z M 1.171875 -8.75 "/>
</symbol>
</g>
</defs>
<g id="surface29993">
<rect x="0" y="0" width="300" height="300" style="fill:rgb(100%,100%,100%);fill-opacity:1;stroke:none;"/>
<path style="fill:none;stroke-width:1.2;stroke-linecap:butt;stroke-linejoin:miter;stroke:rgb(0%,0%,0%);stroke-opacity:1;stroke-miterlimit:10;" d="M 226.273438 72.777344 L 206.808594 94.992188 "/>
<path style="fill:none;stroke-width:1.2;stroke-linecap:butt;stroke-linejoin:miter;stroke:rgb(0%,0%,0%);stroke-opacity:1;stroke-miterlimit:10;" d="M 206.808594 94.992188 L 211.5625 108.972656 "/>
<path style="fill:none;stroke-width:1.2;stroke-linecap:butt;stroke-linejoin:miter;stroke:rgb(0%,0%,100%);stroke-opacity:1;stroke-miterlimit:10;" d="M 211.5625 108.972656 L 216.316406 122.953125 "/>
<path style="fill:none;stroke-width:1.2;stroke-linecap:butt;stroke-linejoin:miter;stroke:rgb(0%,0%,100%);stroke-opacity:1;stroke-miterlimit:10;" d="M 216.316406 122.953125 L 230.800781 125.828125 "/>
<path style="fill:none;stroke-width:1.2;stroke-linecap:butt;stroke-linejoin:miter;stroke:rgb(0%,0%,0%);stroke-opacity:1;stroke-miterlimit:10;" d="M 230.800781 125.828125 L 245.285156 128.703125 "/>
<path style="fill:none;stroke-width:1.2;stroke-linecap:butt;stroke-linejoin:miter;stroke:rgb(0%,0%,100%);stroke-opacity:1;stroke-miterlimit:10;" d="M 216.316406 122.953125 L 206.582031 134.0625 "/>
<path style="fill:none;stroke-width:1.2;stroke-linecap:butt;stroke-linejoin:miter;stroke:rgb(0%,0%,0%);stroke-opacity:1;stroke-miterlimit:10;" d="M 206.582031 134.0625 L 196.851562 145.167969 "/>
<path style=" stroke:none;fill-rule:nonzero;fill:rgb(100%,100%,100%);fill-opacity:1;" d="M 212.316406 115.953125 L 221.316406 115.953125 L 221.316406 129.953125 L 212.316406 129.953125 Z M 212.316406 115.953125 "/>
<g style="fill:rgb(0%,0%,100%);fill-opacity:1;">
  <use xlink:href="#glyph0-1" x="212.316406" y="127.091797"/>
</g>
<path style="fill:none;stroke-width:1.2;stroke-linecap:butt;stroke-linejoin:miter;stroke:rgb(0%,0%,0%);stroke-opacity:1;stroke-miterlimit:10;" d="M 245.285156 128.703125 L 264.75 106.488281 "/>
<path style="fill:none;stroke-width:1;stroke-linecap:butt;stroke-linejoin:miter;stroke:rgb(0%,0%,0%);stroke-opacity:1;stroke-miterlimit:10;" d="M 206.355469 173.132812 L 206.355469 173.132812 M 205.898438 170.167969 L 204.914062 170.503906 M 205.441406 167.203125 L 203.46875 167.875 M 204.984375 164.238281 L 202.023438 165.246094 M 204.527344 161.273438 L 200.578125 162.617188 M 204.070312 158.308594 L 199.132812 159.984375 M 203.613281 155.34375 L 197.691406 157.355469 M 203.15625 152.378906 L 196.246094 154.726562 M 202.699219 149.414062 L 194.800781 152.097656 M 202.242188 146.449219 L 193.355469 149.46875 M 201.785156 143.492188 L 191.914062 146.847656 "/>
<path style="fill:none;stroke-width:1.2;stroke-linecap:butt;stroke-linejoin:miter;stroke:rgb(0%,0%,0%);stroke-opacity:1;stroke-miterlimit:10;" d="M 206.355469 173.132812 L 235.328125 178.882812 "/>
<path style="fill:none;stroke-width:1.2;stroke-linecap:butt;stroke-linejoin:miter;stroke:rgb(0%,0%,100%);stroke-opacity:1;stroke-miterlimit:10;" d="M 186.890625 195.347656 L 196.625 184.238281 "/>
<path style="fill:none;stroke-width:1.2;stroke-linecap:butt;stroke-linejoin:miter;stroke:rgb(0%,0%,0%);stroke-opacity:1;stroke-miterlimit:10;" d="M 196.625 184.238281 L 206.355469 173.132812 "/>
<path style="fill:none;stroke-width:1.2;stroke-linecap:butt;stroke-linejoin:miter;stroke:rgb(0%,0%,0%);stroke-opacity:1;stroke-miterlimit:10;" d="M 235.328125 178.882812 L 244.832031 206.847656 "/>
<path style="fill:none;stroke-width:1.2;stroke-linecap:butt;stroke-linejoin:miter;stroke:rgb(0%,0%,0%);stroke-opacity:1;stroke-miterlimit:10;" d="M 244.832031 206.847656 L 225.367188 229.0625 "/>
<path style="fill:none;stroke-width:1.2;stroke-linecap:butt;stroke-linejoin:miter;stroke:rgb(0%,0%,0%);stroke-opacity:1;stroke-miterlimit:10;" d="M 225.367188 229.0625 L 196.398438 223.3125 "/>
<path style="fill:none;stroke-width:1.2;stroke-linecap:butt;stroke-linejoin:miter;stroke:rgb(0%,0%,0%);stroke-opacity:1;stroke-miterlimit:10;" d="M 196.398438 223.3125 L 191.644531 209.328125 "/>
<path style="fill:none;stroke-width:1.2;stroke-linecap:butt;stroke-linejoin:miter;stroke:rgb(0%,0%,100%);stroke-opacity:1;stroke-miterlimit:10;" d="M 191.644531 209.328125 L 186.890625 195.347656 "/>
<path style="fill:none;stroke-width:1.2;stroke-linecap:butt;stroke-linejoin:miter;stroke:rgb(0%,0%,100%);stroke-opacity:1;stroke-miterlimit:10;" d="M 186.890625 195.347656 L 172.40625 192.472656 "/>
<path style="fill:none;stroke-width:1.2;stroke-linecap:butt;stroke-linejoin:miter;stroke:rgb(0%,0%,0%);stroke-opacity:1;stroke-miterlimit:10;" d="M 172.40625 192.472656 L 157.921875 189.597656 "/>
<path style=" stroke:none;fill-rule:nonzero;fill:rgb(100%,100%,100%);fill-opacity:1;" d="M 182.890625 188.347656 L 191.890625 188.347656 L 191.890625 202.347656 L 182.890625 202.347656 Z M 182.890625 188.347656 "/>
<g style="fill:rgb(0%,0%,100%);fill-opacity:1;">
  <use xlink:href="#glyph0-1" x="182.890625" y="199.486328"/>
</g>
<path style="fill:none;stroke-width:1.2;stroke-linecap:butt;stroke-linejoin:miter;stroke:rgb(0%,0%,0%);stroke-opacity:1;stroke-miterlimit:10;" d="M 157.921875 189.597656 L 148.414062 161.632812 "/>
<path style="fill:none;stroke-width:1.2;stroke-linecap:butt;stroke-linejoin:miter;stroke:rgb(0%,0%,0%);stroke-opacity:1;stroke-miterlimit:10;" d="M 151.03125 163.921875 L 160.761719 152.816406 "/>
<path style="fill:none;stroke-width:1.2;stroke-linecap:butt;stroke-linejoin:miter;stroke:rgb(100%,0%,0%);stroke-opacity:1;stroke-miterlimit:10;" d="M 160.761719 152.816406 L 170.492188 141.710938 "/>
<path style="fill:none;stroke-width:1.2;stroke-linecap:butt;stroke-linejoin:miter;stroke:rgb(0%,0%,0%);stroke-opacity:1;stroke-miterlimit:10;" d="M 145.800781 159.34375 L 155.535156 148.238281 "/>
<path style="fill:none;stroke-width:1.2;stroke-linecap:butt;stroke-linejoin:miter;stroke:rgb(100%,0%,0%);stroke-opacity:1;stroke-miterlimit:10;" d="M 155.535156 148.238281 L 165.265625 137.128906 "/>
<path style="fill:none;stroke-width:1.2;stroke-linecap:butt;stroke-linejoin:miter;stroke:rgb(0%,0%,0%);stroke-opacity:1;stroke-miterlimit:10;" d="M 148.414062 161.632812 L 133.929688 158.757812 "/>
<path style="fill:none;stroke-width:1.2;stroke-linecap:butt;stroke-linejoin:miter;stroke:rgb(0%,0%,100%);stroke-opacity:1;stroke-miterlimit:10;" d="M 133.929688 158.757812 L 119.445312 155.882812 "/>
<path style=" stroke:none;fill-rule:nonzero;fill:rgb(100%,100%,100%);fill-opacity:1;" d="M 162.878906 132.417969 L 172.878906 132.417969 L 172.878906 146.417969 L 162.878906 146.417969 Z M 162.878906 132.417969 "/>
<g style="fill:rgb(100%,0%,0%);fill-opacity:1;">
  <use xlink:href="#glyph0-2" x="162.878906" y="143.556641"/>
</g>
<path style="fill:none;stroke-width:1.2;stroke-linecap:butt;stroke-linejoin:miter;stroke:rgb(0%,0%,100%);stroke-opacity:1;stroke-miterlimit:10;" d="M 119.445312 155.882812 L 115.75 141.585938 "/>
<path style="fill:none;stroke-width:1.2;stroke-linecap:butt;stroke-linejoin:miter;stroke:rgb(0%,0%,0%);stroke-opacity:1;stroke-miterlimit:10;" d="M 115.75 141.585938 L 112.054688 127.289062 "/>
<path style="fill:none;stroke-width:1.2;stroke-linecap:butt;stroke-linejoin:miter;stroke:rgb(0%,0%,0%);stroke-opacity:1;stroke-miterlimit:10;" d="M 101.695312 179.492188 L 110.570312 167.6875 "/>
<path style="fill:none;stroke-width:1.2;stroke-linecap:butt;stroke-linejoin:miter;stroke:rgb(0%,0%,100%);stroke-opacity:1;stroke-miterlimit:10;" d="M 110.570312 167.6875 L 119.445312 155.882812 "/>
<path style=" stroke:none;fill-rule:nonzero;fill:rgb(100%,100%,100%);fill-opacity:1;" d="M 115.445312 148.882812 L 124.445312 148.882812 L 124.445312 162.882812 L 115.445312 162.882812 Z M 115.445312 148.882812 "/>
<g style="fill:rgb(0%,0%,100%);fill-opacity:1;">
  <use xlink:href="#glyph0-1" x="115.445312" y="160.021484"/>
</g>
<path style="fill:none;stroke-width:1.2;stroke-linecap:butt;stroke-linejoin:miter;stroke:rgb(0%,0%,0%);stroke-opacity:1;stroke-miterlimit:10;" d="M 112.054688 127.289062 L 135.976562 109.960938 "/>
<path style="fill:none;stroke-width:1.2;stroke-linecap:butt;stroke-linejoin:miter;stroke:rgb(0%,0%,0%);stroke-opacity:1;stroke-miterlimit:10;" d="M 110.371094 119.925781 L 129.507812 106.066406 "/>
<path style="fill:none;stroke-width:1.2;stroke-linecap:butt;stroke-linejoin:miter;stroke:rgb(0%,0%,0%);stroke-opacity:1;stroke-miterlimit:10;" d="M 85.089844 115.234375 L 112.054688 127.289062 "/>
<path style="fill:none;stroke-width:1.2;stroke-linecap:butt;stroke-linejoin:miter;stroke:rgb(0%,0%,0%);stroke-opacity:1;stroke-miterlimit:10;" d="M 135.976562 109.960938 L 132.929688 80.585938 "/>
<path style="fill:none;stroke-width:1.2;stroke-linecap:butt;stroke-linejoin:miter;stroke:rgb(0%,0%,0%);stroke-opacity:1;stroke-miterlimit:10;" d="M 132.929688 80.585938 L 105.964844 68.53125 "/>
<path style="fill:none;stroke-width:1.2;stroke-linecap:butt;stroke-linejoin:miter;stroke:rgb(0%,0%,0%);stroke-opacity:1;stroke-miterlimit:10;" d="M 127.398438 85.722656 L 105.828125 76.082031 "/>
<path style="fill:none;stroke-width:1.2;stroke-linecap:butt;stroke-linejoin:miter;stroke:rgb(0%,0%,0%);stroke-opacity:1;stroke-miterlimit:10;" d="M 105.964844 68.53125 L 82.046875 85.859375 "/>
<path style="fill:none;stroke-width:1.2;stroke-linecap:butt;stroke-linejoin:miter;stroke:rgb(0%,0%,0%);stroke-opacity:1;stroke-miterlimit:10;" d="M 82.046875 85.859375 L 85.089844 115.234375 "/>
<path style="fill:none;stroke-width:1.2;stroke-linecap:butt;stroke-linejoin:miter;stroke:rgb(0%,0%,0%);stroke-opacity:1;stroke-miterlimit:10;" d="M 89.261719 88.078125 L 91.699219 111.582031 "/>
<path style="fill:none;stroke-width:1.2;stroke-linecap:butt;stroke-linejoin:miter;stroke:rgb(0%,0%,0%);stroke-opacity:1;stroke-miterlimit:10;" d="M 85.089844 115.234375 L 58.855469 128.804688 "/>
<path style="fill:none;stroke-width:1.2;stroke-linecap:butt;stroke-linejoin:miter;stroke:rgb(0%,0%,0%);stroke-opacity:1;stroke-miterlimit:10;" d="M 60.945312 126.027344 L 49.140625 117.152344 "/>
<path style="fill:none;stroke-width:1.2;stroke-linecap:butt;stroke-linejoin:miter;stroke:rgb(100%,0%,0%);stroke-opacity:1;stroke-miterlimit:10;" d="M 49.140625 117.152344 L 37.339844 108.277344 "/>
<path style="fill:none;stroke-width:1.2;stroke-linecap:butt;stroke-linejoin:miter;stroke:rgb(0%,0%,0%);stroke-opacity:1;stroke-miterlimit:10;" d="M 56.769531 131.582031 L 44.964844 122.707031 "/>
<path style="fill:none;stroke-width:1.2;stroke-linecap:butt;stroke-linejoin:miter;stroke:rgb(100%,0%,0%);stroke-opacity:1;stroke-miterlimit:10;" d="M 44.964844 122.707031 L 33.160156 113.832031 "/>
<path style="fill:none;stroke-width:1.2;stroke-linecap:butt;stroke-linejoin:miter;stroke:rgb(0%,0%,0%);stroke-opacity:1;stroke-miterlimit:10;" d="M 58.855469 128.804688 L 55.980469 143.289062 "/>
<path style="fill:none;stroke-width:1.2;stroke-linecap:butt;stroke-linejoin:miter;stroke:rgb(0%,0%,100%);stroke-opacity:1;stroke-miterlimit:10;" d="M 55.980469 143.289062 L 53.105469 157.773438 "/>
<path style=" stroke:none;fill-rule:nonzero;fill:rgb(100%,100%,100%);fill-opacity:1;" d="M 25.25 104.054688 L 35.25 104.054688 L 35.25 118.054688 L 25.25 118.054688 Z M 25.25 104.054688 "/>
<g style="fill:rgb(100%,0%,0%);fill-opacity:1;">
  <use xlink:href="#glyph0-2" x="25.25" y="115.193359"/>
</g>
<path style="fill:none;stroke-width:1.2;stroke-linecap:butt;stroke-linejoin:miter;stroke:rgb(0%,0%,100%);stroke-opacity:1;stroke-miterlimit:10;" d="M 53.105469 157.773438 L 62.640625 169.054688 "/>
<path style="fill:none;stroke-width:1.2;stroke-linecap:butt;stroke-linejoin:miter;stroke:rgb(0%,0%,0%);stroke-opacity:1;stroke-miterlimit:10;" d="M 62.640625 169.054688 L 72.171875 180.332031 "/>
<path style=" stroke:none;fill-rule:nonzero;fill:rgb(100%,100%,100%);fill-opacity:1;" d="M 44.105469 150.773438 L 62.105469 150.773438 L 62.105469 164.773438 L 44.105469 164.773438 Z M 44.105469 150.773438 "/>
<g style="fill:rgb(0%,0%,100%);fill-opacity:1;">
  <use xlink:href="#glyph0-1" x="44.105469" y="161.912109"/>
  <use xlink:href="#glyph0-3" x="53.082031" y="161.912109"/>
</g>
<path style="fill:none;stroke-width:1.2;stroke-linecap:butt;stroke-linejoin:miter;stroke:rgb(0%,0%,0%);stroke-opacity:1;stroke-miterlimit:10;" d="M 72.171875 180.332031 L 101.695312 179.492188 "/>
<path style="fill:none;stroke-width:1.2;stroke-linecap:butt;stroke-linejoin:miter;stroke:rgb(0%,0%,0%);stroke-opacity:1;stroke-miterlimit:10;" d="M 75.324219 187.195312 L 98.941406 186.523438 "/>
<path style="fill:none;stroke-width:1.2;stroke-linecap:butt;stroke-linejoin:miter;stroke:rgb(0%,0%,0%);stroke-opacity:1;stroke-miterlimit:10;" d="M 58.140625 206.320312 L 72.171875 180.332031 "/>
<path style="fill:none;stroke-width:1.2;stroke-linecap:butt;stroke-linejoin:miter;stroke:rgb(0%,0%,0%);stroke-opacity:1;stroke-miterlimit:10;" d="M 101.695312 179.492188 L 109.441406 192.066406 "/>
<path style="fill:none;stroke-width:1.2;stroke-linecap:butt;stroke-linejoin:miter;stroke:rgb(0%,0%,100%);stroke-opacity:1;stroke-miterlimit:10;" d="M 109.441406 192.066406 L 117.1875 204.636719 "/>
<path style="fill:none;stroke-width:1.2;stroke-linecap:butt;stroke-linejoin:miter;stroke:rgb(0%,0%,100%);stroke-opacity:1;stroke-miterlimit:10;" d="M 117.1875 204.636719 L 110.167969 217.632812 "/>
<path style="fill:none;stroke-width:1.2;stroke-linecap:butt;stroke-linejoin:miter;stroke:rgb(0%,0%,0%);stroke-opacity:1;stroke-miterlimit:10;" d="M 110.167969 217.632812 L 103.152344 230.625 "/>
<path style="fill:none;stroke-width:1.2;stroke-linecap:butt;stroke-linejoin:miter;stroke:rgb(0%,0%,100%);stroke-opacity:1;stroke-miterlimit:10;" d="M 109.667969 203.933594 L 104.054688 214.332031 "/>
<path style="fill:none;stroke-width:1.2;stroke-linecap:butt;stroke-linejoin:miter;stroke:rgb(0%,0%,0%);stroke-opacity:1;stroke-miterlimit:10;" d="M 104.054688 214.332031 L 98.441406 224.726562 "/>
<path style=" stroke:none;fill-rule:nonzero;fill:rgb(100%,100%,100%);fill-opacity:1;" d="M 113.1875 197.636719 L 122.1875 197.636719 L 122.1875 211.636719 L 113.1875 211.636719 Z M 113.1875 197.636719 "/>
<g style="fill:rgb(0%,0%,100%);fill-opacity:1;">
  <use xlink:href="#glyph0-1" x="113.1875" y="208.775391"/>
</g>
<path style="fill:none;stroke-width:1.2;stroke-linecap:butt;stroke-linejoin:miter;stroke:rgb(0%,0%,0%);stroke-opacity:1;stroke-miterlimit:10;" d="M 103.152344 230.625 L 73.628906 231.46875 "/>
<path style="fill:none;stroke-width:1.2;stroke-linecap:butt;stroke-linejoin:miter;stroke:rgb(0%,0%,0%);stroke-opacity:1;stroke-miterlimit:10;" d="M 73.628906 231.46875 L 58.140625 206.320312 "/>
<path style="fill:none;stroke-width:1.2;stroke-linecap:butt;stroke-linejoin:miter;stroke:rgb(0%,0%,0%);stroke-opacity:1;stroke-miterlimit:10;" d="M 77.996094 225.308594 L 65.605469 205.191406 "/>
</g>
</svg>

<svg xmlns="http://www.w3.org/2000/svg" xmlns:xlink="http://www.w3.org/1999/xlink" width="300pt" height="300pt" viewBox="0 0 300 300"><defs><symbol overflow="visible"><path d="M.594 2.125V-8.47h6V2.126zm.672-.672h4.671V-7.78h-4.67zm0 0"/></symbol><symbol overflow="visible" id="a"><path d="M1.172-8.75h1.594l3.89 7.313V-8.75h1.14V0H6.204L2.328-7.313V0H1.172zm0 0"/></symbol><symbol overflow="visible" id="b"><path d="M4.734-7.953c-.867 0-1.554.324-2.062.97-.5.635-.75 1.51-.75 2.624 0 1.094.25 1.965.75 2.61.508.637 1.195.953 2.062.953.852 0 1.532-.316 2.032-.953.507-.645.765-1.516.765-2.61 0-1.113-.257-1.988-.764-2.624-.5-.645-1.18-.97-2.032-.97zm0-.953c1.22 0 2.192.414 2.922 1.234.74.824 1.11 1.93 1.11 3.313 0 1.376-.37 2.477-1.11 3.298C6.926-.24 5.953.17 4.734.17c-1.23 0-2.214-.41-2.953-1.234C1.04-1.882.673-2.984.673-4.36c0-1.382.367-2.488 1.11-3.312.738-.82 1.722-1.234 2.952-1.234zm0 0"/></symbol><symbol overflow="visible" id="c"><path d="M1.172-8.75H2.36v3.594h4.296V-8.75h1.188V0H6.656v-4.172H2.36V0H1.17zm0 0"/></symbol></defs><g><path fill="#fff" d="M0 0h300v300H0z"/><path d="M226.273 72.777L206.81 94.992M206.81 94.992l4.752 13.98" stroke-width="1.2" stroke="#000" stroke-miterlimit="10" fill="none"/><path d="M211.563 108.973l4.753 13.98M216.316 122.953l14.485 2.875" stroke-width="1.2" stroke="#00f" stroke-miterlimit="10" fill="none"/><path d="M230.8 125.828l14.485 2.875" stroke-width="1.2" stroke="#000" stroke-miterlimit="10" fill="none"/><path d="M216.316 122.953l-9.734 11.11" stroke-width="1.2" stroke="#00f" stroke-miterlimit="10" fill="none"/><path d="M206.582 134.063l-9.73 11.105" stroke-width="1.2" stroke="#000" stroke-miterlimit="10" fill="none"/><path d="M212.316 115.953h9v14h-9zm0 0" fill="#fff"/><use xlink:href="#a" x="212.316" y="127.092" fill="#00f"/><path d="M245.285 128.703l19.465-22.215" stroke-width="1.2" stroke="#000" stroke-miterlimit="10" fill="none"/><path d="M206.355 173.133m-.457-2.965l-.984.336m.527-3.3l-1.97.67m1.514-3.636l-2.96 1.008m2.503-3.973l-3.95 1.344m3.493-4.308l-4.937 1.674m4.48-4.64l-5.922 2.01m5.466-4.975l-6.91 2.347m6.453-5.313l-7.9 2.684m7.442-5.65l-8.887 3.02m8.43-5.976l-9.87 3.356" stroke="#000" stroke-miterlimit="10" fill="none"/><path d="M206.355 173.133l28.973 5.75" stroke-width="1.2" stroke="#000" stroke-miterlimit="10" fill="none"/><path d="M186.89 195.348l9.735-11.11" stroke-width="1.2" stroke="#00f" stroke-miterlimit="10" fill="none"/><path d="M196.625 184.238l9.73-11.105M235.328 178.883l9.504 27.965M244.832 206.848l-19.465 22.214M225.367 229.063l-28.97-5.75M196.398 223.313l-4.753-13.985" stroke-width="1.2" stroke="#000" stroke-miterlimit="10" fill="none"/><path d="M191.645 209.328l-4.754-13.98M186.89 195.348l-14.484-2.875" stroke-width="1.2" stroke="#00f" stroke-miterlimit="10" fill="none"/><path d="M172.406 192.473l-14.484-2.875" stroke-width="1.2" stroke="#000" stroke-miterlimit="10" fill="none"/><path d="M182.89 188.348h9v14h-9zm0 0" fill="#fff"/><use xlink:href="#a" x="182.891" y="199.486" fill="#00f"/><path d="M157.922 189.598l-9.508-27.965M151.03 163.922l9.732-11.106" stroke-width="1.2" stroke="#000" stroke-miterlimit="10" fill="none"/><path d="M160.762 152.816l9.73-11.105" stroke-width="1.2" stroke="#f00" stroke-miterlimit="10" fill="none"/><path d="M145.8 159.344l9.735-11.106" stroke-width="1.2" stroke="#000" stroke-miterlimit="10" fill="none"/><path d="M155.535 148.238l9.73-11.11" stroke-width="1.2" stroke="#f00" stroke-miterlimit="10" fill="none"/><path d="M148.414 161.633l-14.484-2.875" stroke-width="1.2" stroke="#000" stroke-miterlimit="10" fill="none"/><path d="M133.93 158.758l-14.485-2.875" stroke-width="1.2" stroke="#00f" stroke-miterlimit="10" fill="none"/><path d="M162.88 132.418h10v14h-10zm0 0" fill="#fff"/><use xlink:href="#b" x="162.879" y="143.557" fill="#f00"/><path d="M119.445 155.883l-3.695-14.297" stroke-width="1.2" stroke="#00f" stroke-miterlimit="10" fill="none"/><path d="M115.75 141.586l-3.695-14.297M101.695 179.492l8.875-11.804" stroke-width="1.2" stroke="#000" stroke-miterlimit="10" fill="none"/><path d="M110.57 167.688l8.875-11.805" stroke-width="1.2" stroke="#00f" stroke-miterlimit="10" fill="none"/><path d="M115.445 148.883h9v14h-9zm0 0" fill="#fff"/><use xlink:href="#a" x="115.445" y="160.021" fill="#00f"/><path d="M112.055 127.29l23.922-17.33M110.37 119.926l19.138-13.86M85.09 115.234l26.965 12.055M135.977 109.96l-3.047-29.374M132.93 80.586L105.965 68.53M127.398 85.723l-21.57-9.64M105.965 68.53L82.047 85.86M82.047 85.86l3.043 29.374M89.262 88.078l2.437 23.504M85.09 115.234l-26.235 13.57M60.945 126.027l-11.804-8.875" stroke-width="1.2" stroke="#000" stroke-miterlimit="10" fill="none"/><path d="M49.14 117.152l-11.8-8.875" stroke-width="1.2" stroke="#f00" stroke-miterlimit="10" fill="none"/><path d="M56.77 131.582l-11.805-8.875" stroke-width="1.2" stroke="#000" stroke-miterlimit="10" fill="none"/><path d="M44.965 122.707l-11.805-8.875" stroke-width="1.2" stroke="#f00" stroke-miterlimit="10" fill="none"/><path d="M58.855 128.805L55.98 143.29" stroke-width="1.2" stroke="#000" stroke-miterlimit="10" fill="none"/><path d="M55.98 143.29l-2.875 14.483" stroke-width="1.2" stroke="#00f" stroke-miterlimit="10" fill="none"/><path d="M25.25 104.055h10v14h-10zm0 0" fill="#fff"/><use xlink:href="#b" x="25.25" y="115.193" fill="#f00"/><path d="M53.105 157.773l9.536 11.282" stroke-width="1.2" stroke="#00f" stroke-miterlimit="10" fill="none"/><path d="M62.64 169.055l9.532 11.277" stroke-width="1.2" stroke="#000" stroke-miterlimit="10" fill="none"/><path d="M44.105 150.773h18v14h-18zm0 0" fill="#fff"/><g fill="#00f"><use xlink:href="#a" x="44.105" y="161.912"/><use xlink:href="#c" x="53.082" y="161.912"/></g><path d="M72.172 180.332l29.523-.84M75.324 187.195l23.617-.672M58.14 206.32l14.032-25.988M101.695 179.492l7.746 12.574" stroke-width="1.2" stroke="#000" stroke-miterlimit="10" fill="none"/><path d="M109.44 192.066l7.748 12.57M117.188 204.637l-7.02 12.996" stroke-width="1.2" stroke="#00f" stroke-miterlimit="10" fill="none"/><path d="M110.168 217.633l-7.016 12.992" stroke-width="1.2" stroke="#000" stroke-miterlimit="10" fill="none"/><path d="M109.668 203.934l-5.613 10.398" stroke-width="1.2" stroke="#00f" stroke-miterlimit="10" fill="none"/><path d="M104.055 214.332l-5.614 10.395" stroke-width="1.2" stroke="#000" stroke-miterlimit="10" fill="none"/><path d="M113.188 197.637h9v14h-9zm0 0" fill="#fff"/><use xlink:href="#a" x="113.188" y="208.775" fill="#00f"/><path d="M103.152 230.625l-29.523.844M73.63 231.47l-15.49-25.15M77.996 225.31l-12.39-20.12" stroke-width="1.2" stroke="#000" stroke-miterlimit="10" fill="none"/></g></svg>
